static/assets/img/icons/theme/general/save.svg

<svg height="24" viewBox="0 0 24 24" width="24" xmlns="http://www.w3.org/2000/svg"><g fill="none" fill-rule="evenodd"><path d="m0 0h24v24h-24z" opacity="0"/><g fill="#000"><path d="m17 4h-11c-1.20888889 0-2 .7-2 2v12c0 1.3.79111111 2 2 2h12c1.2 0 2-.7 2-2v-10.79289322c0-.13260824-.0526784-.2597852-.1464466-.35355339zm0 7h-10v-7h10z" fill-rule="nonzero"/><rect height="5" opacity=".3" rx=".5" width="3" x="12" y="4"/></g></g></svg>

<svg width="24px" height="24px" viewBox="0 0 24 24" version="1.1" xmlns="http://www.w3.org/2000/svg" xmlns:xlink="http://www.w3.org/1999/xlink">
    <title>Icon For Save</title>
    <g stroke="none" stroke-width="1" fill="none" fill-rule="evenodd">
        <polygon points="0 0 24 0 24 24 0 24" opacity="0"></polygon>
        <path d="M17,4 L6,4 C4.79111111,4 4,4.7 4,6 L4,18 C4,19.3 4.79111111,20 6,20 L18,20 C19.2,20 20,19.3 20,18 L20,7.20710678 C20,7.07449854 19.9473216,6.94732158 19.8535534,6.85355339 L17,4 Z M17,11 L7,11 L7,4 L17,4 L17,11 Z" fill="#000000" fill-rule="nonzero"></path>
        <rect fill="#000000" opacity="0.3" x="12" y="4" width="3" height="5" rx="0.5"></rect>
    </g>
</svg>
